svgs/clash_of_clans.svg

<svg width="192" height="192" viewBox="0 0 192 192" fill="none" xmlns="http://www.w3.org/2000/svg">
<path fill-rule="evenodd" clip-rule="evenodd" d="M44.0256 43.625C44.3858 68.9189 48.5414 88.9682 55.978 104.537L89.7574 70.7573C92.1005 68.4142 95.8995 68.4142 98.2426 70.7573C100.586 73.1005 100.586 76.8995 98.2426 79.2426L62.1375 115.348C66.4857 121.787 71.6158 127.314 77.5344 131.98L115.757 93.7573C118.101 91.4142 121.899 91.4142 124.243 93.7573C126.586 96.1005 126.586 99.8995 124.243 102.243L87.7356 138.75C92.7255 141.519 98.1461 143.835 104 145.716C123.384 139.488 138.017 128.494 147.992 112.018C157.951 95.5693 163.551 73.1835 163.974 43.6431C143.1 33.1261 123.335 28 103.812 28C84.2972 28 64.6563 33.1223 44.0256 43.625ZM78.9575 147.528C86.0092 151.794 93.7926 155.182 102.264 157.743C103.396 158.086 104.604 158.086 105.736 157.743C128.488 150.865 146.279 138.017 158.258 118.232C170.144 98.6003 176 72.6488 176 40C176 37.7743 174.768 35.7315 172.799 34.6931C149.368 22.3335 126.662 16 103.812 16C80.9599 16 58.3712 22.3354 35.1765 34.7059C33.2213 35.7486 32 37.7841 32 40C32 70.0749 36.9693 94.4667 47.0435 113.471L31.5147 129H22C18.6863 129 16 131.686 16 135C16 138.314 18.6863 141 22 141H28V147C28 150.314 30.6863 153 34 153C37.3137 153 40 150.314 40 147V137.485L53.5157 123.97C58.0157 130.275 63.1878 135.778 68.998 140.517L57.5147 152H48C44.6863 152 42 154.686 42 158C42 161.314 44.6863 164 48 164H54V170C54 173.314 56.6863 176 60 176C63.3137 176 66 173.314 66 170V160.485L78.9575 147.528Z" fill="black"/>
</svg>

<svg width="192" height="192" fill="none" xmlns="http://www.w3.org/2000/svg"><path fill-rule="evenodd" clip-rule="evenodd" d="M44.026 43.625c.36 25.294 4.515 45.343 11.952 60.912l33.78-33.78a6 6 0 0 1 8.485 8.486l-36.105 36.105c4.348 6.439 9.478 11.966 15.396 16.632l38.223-38.223a6.001 6.001 0 0 1 8.486 8.486L87.736 138.75c4.99 2.769 10.41 5.085 16.264 6.966 19.384-6.228 34.017-17.222 43.992-33.698 9.959-16.449 15.559-38.835 15.982-68.375C143.1 33.126 123.335 28 103.812 28c-19.515 0-39.156 5.122-59.786 15.625zm34.931 103.903c7.052 4.266 14.836 7.654 23.307 10.215a5.986 5.986 0 0 0 3.472 0c22.752-6.878 40.543-19.726 52.522-39.511C170.144 98.6 176 72.649 176 40a6 6 0 0 0-3.201-5.307C149.368 22.333 126.662 16 103.812 16c-22.852 0-45.44 6.335-68.636 18.706A6 6 0 0 0 32 40c0 30.075 4.97 54.467 15.044 73.471L31.514 129H22a6 6 0 1 0 0 12h6v6a6 6 0 1 0 12 0v-9.515l13.516-13.515c4.5 6.305 9.672 11.808 15.482 16.547L57.515 152H48a6 6 0 1 0 0 12h6v6a6 6 0 1 0 12 0v-9.515l12.957-12.957z" fill="#000"/></svg>
